X:1
T:Muff Lawler, the Squealer
M:3/4
L:1/4
K:G
 D/2D/2| G A B/2B/2| G- B B| A G E| G z/2 G/2 G| B d3/2 d/2| d B2|\
 B3/2 A/2A/2 B/2| A z B| d d B| G B B| G F G| D z G| G G A| B G B|\
 A3| G z||
